X: 40933
T: Trip To Birmingham, The
R: reel
M: 4/4
K: Dmajor
|:DGGF G2 (3Bcd|e3d edBA|G3B dGBG|ABAG EGGE|
DGGF G2 (3Bcd|e3d efga|bg g2 ageg|dBAB G3:|
|:dggf g3a|bg g2 edBA|G3B dGBG|ABAG EG G2|
dggf g3a|bg g2 edBA|G3B dGBG|AGFA G3e|
dggf g3a|bg g2 edBA|G3B dGBG|ABAG EG G2|
dg g2 ag g2|bg g2 edBA|G3B dGBG|AGFA G3||

